X:366
T: SIND DIR DENN DIE HOSENBAENDER
N: E0994
O: Europa, Mitteleuropa, Deutschland
R: Tanz - Lied, Reigen
M: 4/4
L: 1/8
K: F
 | c3cd2c2 | c3cB2A2
c3cB2A2 | G4F4
c3cd2c2 | c3cB2A2
c3cB2A2 | G4F4
G3GA2G2 | G3GF2
E2 | G3GF2E2 | D4C4
G3GA2G2 | G3GF2
E2 | G3GF2E2 | D4C4

